X:1
T:Haste to the Wedding,aka. JBa.89
T:Haste to the Wedding,aka. JBa.89
T:The Different Hand
C:The Different Hand
L:1/8
Q:3/8=120
M:6/8
K:D
V:1 treble 
V:1
"^Untitled in MS" A | AFG Aaf | ede fdB | AFA B/c/dF | EEE E2 A | AFG Aaf | ede fdB | AFA B/c/dF | %8
 DDD D2 :: f/g/ | afa afa | bgb bgb | afa agf | eee e2 f/g/ | a3 f3 | ede fdB | AFA faf | ddd d2 :| %18

